static/img/kroki/c86f31be63fde158d2282554e127c253.svg

<?xml version="1.0" encoding="us-ascii" standalone="no"?><svg xmlns="http://www.w3.org/2000/svg" xmlns:xlink="http://www.w3.org/1999/xlink" contentStyleType="text/css" height="758px" preserveAspectRatio="none" style="width:500px;height:758px;" version="1.1" viewBox="0 0 500 758" width="500px" zoomAndPan="magnify"><defs/><g><!--class instance--><g id="elem_instance"><rect codeLine="23" fill="#3D176E" height="152.9766" id="instance" rx="2.5" ry="2.5" style="stroke:#000D19;stroke-width:0.5;" width="263" x="230.5" y="438.75"/><ellipse cx="317.75" cy="458.6445" fill="#ADD1B2" rx="11" ry="11" style="stroke:#181818;stroke-width:1.0;"/><path d="M320.7188,464.2852 Q320.1406,464.582 319.5,464.7227 Q318.8594,464.8789 318.1563,464.8789 Q315.6563,464.8789 314.3281,463.2383 Q313.0156,461.582 313.0156,458.457 Q313.0156,455.332 314.3281,453.6758 Q315.6563,452.0195 318.1563,452.0195 Q318.8594,452.0195 319.5,452.1758 Q320.1563,452.332 320.7188,452.6289 L320.7188,455.3477 Q320.0938,454.7695 319.5,454.5039 Q318.9063,454.2227 318.2813,454.2227 Q316.9375,454.2227 316.25,455.3008 Q315.5625,456.3633 315.5625,458.457 Q315.5625,460.5508 316.25,461.6289 Q316.9375,462.6914 318.2813,462.6914 Q318.9063,462.6914 319.5,462.4258 Q320.0938,462.1445 320.7188,461.5664 L320.7188,464.2852 Z " fill="#000000"/><text fill="#D9B8FF" font-family="Helvetica" font-size="17" lengthAdjust="spacing" textLength="70" x="343.25" y="464.5298">instance</text><line style="stroke:#000D19;stroke-width:0.5;" x1="231.5" x2="492.5" y1="478.5391" y2="478.5391"/><text fill="#D9B8FF" font-family="sans-serif" font-size="14" font-weight="bold" lengthAdjust="spacing" textLength="119" x="241.5" y="500.5342">instance_cores</text><text fill="#D9B8FF" font-family="sans-serif" font-size="14" lengthAdjust="spacing" textLength="57" x="360.5" y="500.5342">: double</text><text fill="#D9B8FF" font-family="sans-serif" font-size="14" font-weight="bold" lengthAdjust="spacing" textLength="138" x="241.5" y="526.8311">instance_memory</text><text fill="#D9B8FF" font-family="sans-serif" font-size="14" lengthAdjust="spacing" textLength="57" x="379.5" y="526.8311">: double</text><text fill="#D9B8FF" font-family="sans-serif" font-size="14" font-weight="bold" lengthAdjust="spacing" textLength="123" x="241.5" y="553.1279">instance_status</text><text fill="#D9B8FF" font-family="sans-serif" font-size="14" lengthAdjust="spacing" textLength="118" x="364.5" y="553.1279">: instance_status</text><text fill="#D9B8FF" font-family="sans-serif" font-size="14" font-weight="bold" lengthAdjust="spacing" textLength="109" x="241.5" y="579.4248">instance_type</text><text fill="#D9B8FF" font-family="sans-serif" font-size="14" lengthAdjust="spacing" textLength="48" x="350.5" y="579.4248">: string</text></g><!--class resource--><g id="elem_resource"><rect codeLine="29" fill="#3D176E" height="310.7578" id="resource" rx="2.5" ry="2.5" style="stroke:#000D19;stroke-width:0.5;" width="227" x="248.5" y="7"/><ellipse cx="317.25" cy="26.8945" fill="#ADD1B2" rx="11" ry="11" style="stroke:#181818;stroke-width:1.0;"/><path d="M320.2188,32.5352 Q319.6406,32.832 319,32.9727 Q318.3594,33.1289 317.6563,33.1289 Q315.1563,33.1289 313.8281,31.4883 Q312.5156,29.832 312.5156,26.707 Q312.5156,23.582 313.8281,21.9258 Q315.1563,20.2695 317.6563,20.2695 Q318.3594,20.2695 319,20.4258 Q319.6563,20.582 320.2188,20.8789 L320.2188,23.5977 Q319.5938,23.0195 319,22.7539 Q318.4063,22.4727 317.7813,22.4727 Q316.4375,22.4727 315.75,23.5508 Q315.0625,24.6133 315.0625,26.707 Q315.0625,28.8008 315.75,29.8789 Q316.4375,30.9414 317.7813,30.9414 Q318.4063,30.9414 319,30.6758 Q319.5938,30.3945 320.2188,29.8164 L320.2188,32.5352 Z " fill="#000000"/><text fill="#D9B8FF" font-family="Helvetica" font-size="17" lengthAdjust="spacing" textLength="71" x="342.75" y="32.7798">resource</text><line style="stroke:#000D19;stroke-width:0.5;" x1="249.5" x2="474.5" y1="46.7891" y2="46.7891"/><text fill="#D9B8FF" font-family="sans-serif" font-size="14" font-weight="bold" lengthAdjust="spacing" textLength="29" x="259.5" y="68.7842">age</text><text fill="#D9B8FF" font-family="sans-serif" font-size="14" lengthAdjust="spacing" textLength="66" x="288.5" y="68.7842">: duration</text><text fill="#D9B8FF" font-family="sans-serif" font-size="14" font-weight="bold" lengthAdjust="spacing" textLength="43" x="259.5" y="95.0811">atime</text><text fill="#D9B8FF" font-family="sans-serif" font-size="14" lengthAdjust="spacing" textLength="70" x="302.5" y="95.0811">: datetime</text><text fill="#D9B8FF" font-family="sans-serif" font-size="14" font-weight="bold" lengthAdjust="spacing" textLength="43" x="259.5" y="121.3779">ctime</text><text fill="#D9B8FF" font-family="sans-serif" font-size="14" lengthAdjust="spacing" textLength="70" x="302.5" y="121.3779">: datetime</text><text fill="#D9B8FF" font-family="sans-serif" font-size="14" font-weight="bold" lengthAdjust="spacing" textLength="14" x="259.5" y="147.6748">id</text><text fill="#D9B8FF" font-family="sans-serif" font-size="14" lengthAdjust="spacing" textLength="48" x="273.5" y="147.6748">: string</text><text fill="#D9B8FF" font-family="sans-serif" font-size="14" font-weight="bold" lengthAdjust="spacing" textLength="33" x="259.5" y="173.9717">kind</text><text fill="#D9B8FF" font-family="sans-serif" font-size="14" lengthAdjust="spacing" textLength="48" x="292.5" y="173.9717">: string</text><text fill="#D9B8FF" font-family="sans-serif" font-size="14" font-weight="bold" lengthAdjust="spacing" textLength="90" x="259.5" y="200.2686">last_access</text><text fill="#D9B8FF" font-family="sans-serif" font-size="14" lengthAdjust="spacing" textLength="66" x="349.5" y="200.2686">: duration</text><text fill="#D9B8FF" font-family="sans-serif" font-size="14" font-weight="bold" lengthAdjust="spacing" textLength="90" x="259.5" y="226.5654">last_update</text><text fill="#D9B8FF" font-family="sans-serif" font-size="14" lengthAdjust="spacing" textLength="66" x="349.5" y="226.5654">: duration</text><text fill="#D9B8FF" font-family="sans-serif" font-size="14" font-weight="bold" lengthAdjust="spacing" textLength="48" x="259.5" y="252.8623">mtime</text><text fill="#D9B8FF" font-family="sans-serif" font-size="14" lengthAdjust="spacing" textLength="70" x="307.5" y="252.8623">: datetime</text><text fill="#D9B8FF" font-family="sans-serif" font-size="14" font-weight="bold" lengthAdjust="spacing" textLength="43" x="259.5" y="279.1592">name</text><text fill="#D9B8FF" font-family="sans-serif" font-size="14" lengthAdjust="spacing" textLength="48" x="302.5" y="279.1592">: string</text><text fill="#D9B8FF" font-family="sans-serif" font-size="14" font-weight="bold" lengthAdjust="spacing" textLength="34" x="259.5" y="305.4561">tags</text><text fill="#D9B8FF" font-family="sans-serif" font-size="14" lengthAdjust="spacing" textLength="171" x="293.5" y="305.4561">: dictionary[string, string]</text></g><!--class vsphere_instance--><g id="elem_vsphere_instance"><rect codeLine="41" fill="#3D176E" height="39.7891" id="vsphere_instance" rx="2.5" ry="2.5" style="stroke:#000D19;stroke-width:0.5;" width="187" x="42.5" y="712.73"/><ellipse cx="57.5" cy="732.6245" fill="#ADD1B2" rx="11" ry="11" style="stroke:#181818;stroke-width:1.0;"/><path d="M60.4688,738.2652 Q59.8906,738.562 59.25,738.7027 Q58.6094,738.8589 57.9063,738.8589 Q55.4063,738.8589 54.0781,737.2183 Q52.7656,735.562 52.7656,732.437 Q52.7656,729.312 54.0781,727.6558 Q55.4063,725.9995 57.9063,725.9995 Q58.6094,725.9995 59.25,726.1558 Q59.9063,726.312 60.4688,726.6089 L60.4688,729.3277 Q59.8438,728.7495 59.25,728.4839 Q58.6563,728.2027 58.0313,728.2027 Q56.6875,728.2027 56,729.2808 Q55.3125,730.3433 55.3125,732.437 Q55.3125,734.5308 56,735.6089 Q56.6875,736.6714 58.0313,736.6714 Q58.6563,736.6714 59.25,736.4058 Q59.8438,736.1245 60.4688,735.5464 L60.4688,738.2652 Z " fill="#000000"/><text fill="#D9B8FF" font-family="Helvetica" font-size="17" lengthAdjust="spacing" textLength="145" x="76.5" y="738.5098">vsphere_instance</text></g><!--class vsphere_resource--><g id="elem_vsphere_resource"><rect codeLine="44" fill="#3D176E" height="39.7891" id="vsphere_resource" rx="2.5" ry="2.5" style="stroke:#000D19;stroke-width:0.5;" width="188" x="7" y="495.35"/><ellipse cx="22" cy="515.2445" fill="#ADD1B2" rx="11" ry="11" style="stroke:#181818;stroke-width:1.0;"/><path d="M24.9688,520.8852 Q24.3906,521.182 23.75,521.3227 Q23.1094,521.4789 22.4063,521.4789 Q19.9063,521.4789 18.5781,519.8383 Q17.2656,518.182 17.2656,515.057 Q17.2656,511.932 18.5781,510.2758 Q19.9063,508.6195 22.4063,508.6195 Q23.1094,508.6195 23.75,508.7758 Q24.4063,508.932 24.9688,509.2289 L24.9688,511.9477 Q24.3438,511.3695 23.75,511.1039 Q23.1563,510.8227 22.5313,510.8227 Q21.1875,510.8227 20.5,511.9008 Q19.8125,512.9633 19.8125,515.057 Q19.8125,517.1508 20.5,518.2289 Q21.1875,519.2914 22.5313,519.2914 Q23.1563,519.2914 23.75,519.0258 Q24.3438,518.7445 24.9688,518.1664 L24.9688,520.8852 Z " fill="#000000"/><text fill="#D9B8FF" font-family="Helvetica" font-size="17" lengthAdjust="spacing" textLength="146" x="41" y="521.1298">vsphere_resource</text></g><!--reverse link resource to instance--><g id="link_resource_instance"><path codeLine="47" d="M362,336.04 C362,377.74 362,403.03 362,438.31 " fill="none" id="resource-backto-instance" style="stroke:#FFAF37;stroke-width:2.0;"/><polygon fill="none" points="362,318.04,356,336.04,368,336.04,362,318.04" style="stroke:#FFAF37;stroke-width:2.0;"/></g><!--reverse link instance to vsphere_instance--><g id="link_instance_vsphere_instance"><path codeLine="48" d="M269.2888,604.5972 C224.2988,647.4672 184.61,685.3 156.35,712.23 " fill="none" id="instance-backto-vsphere_instance" style="stroke:#FFAF37;stroke-width:2.0;"/><polygon fill="none" points="282.32,592.18,265.1497,600.2534,273.4278,608.9409,282.32,592.18" style="stroke:#FFAF37;stroke-width:2.0;"/></g><!--reverse link vsphere_resource to vsphere_instance--><g id="link_vsphere_resource_vsphere_instance"><path codeLine="49" d="M106.995,553.1273 C113.615,593.8973 126.19,671.24 132.85,712.24 " fill="none" id="vsphere_resource-backto-vsphere_instance" style="stroke:#FFAF37;stroke-width:2.0;"/><polygon fill="none" points="104.11,535.36,101.0725,554.089,112.9174,552.1657,104.11,535.36" style="stroke:#FFAF37;stroke-width:2.0;"/></g><!--SRC=[XPD1J-Cm48Nl-HMMk4LKQa5iAU82bH1S45hsjbfLKtkIMatiQ3m15NR_-zfD6xbE2wSqxtrvypnDLbgXmBhXZQYnNYAvpAsrQO2W5dT4zdrkAqlYh2YWk9ocveCr_2tm33MAHwpUaBM4bFYrqd9jq3bn4Ldt8DSbsTQeBfu9ZFCM6eweUGNEtJ6JNhQCKHarMruNHKgceMUNQZBzWGFCaaBQ8UFnM4rcAVBjg2_FtHEl-WF595xQisKSr1oCs59VjWn4L79mqBr_ikCBAALDAQuYxMVNYGpIWVww0cNV0rr0vU8nZf7GygR1-U1KEBjMnVGe_7GApcHOdT36CHY9uZFBy_tDGbf2b-StGjbsMM5i-NVRqkQuvo_SRfzBf1WAhGBY_BjcokpVheWVQ5lQ5O5oYwYMWBKrGM5TTnemXjzUaqSqhQBiFFSREHJyB5w0bFuhIIPidRO9MObJ7vbZeCQ3O8QoIzGoF0Qq-TrvvplcJt_KDzUi_F-pY7O_yA9rUA-_k_qx6etwxMPzGgUdmTaWxGJt7m00]--></g></svg>

<svg xmlns="http://www.w3.org/2000/svg" width="500" height="758" viewBox="0 0 500 758"><rect width="263" height="152.977" x="230.5" y="438.75" fill="#3D176E" rx="2.5" ry="2.5" style="stroke:#000d19;stroke-width:.5"/><circle cx="317.75" cy="458.644" r="11" fill="#ADD1B2" style="stroke:#181818;stroke-width:1"/><path d="M320.719 464.285q-.578.297-1.219.438-.64.156-1.344.156-2.5 0-3.828-1.64-1.312-1.657-1.312-4.782t1.312-4.781q1.328-1.656 3.828-1.656.703 0 1.344.156.656.156 1.219.453v2.719q-.625-.579-1.219-.844-.594-.281-1.219-.281-1.344 0-2.031 1.078-.687 1.062-.687 3.156t.687 3.172q.688 1.062 2.031 1.062.625 0 1.219-.265.594-.281 1.219-.86z"/><text x="343.25" y="464.53" fill="#D9B8FF" font-family="Helvetica" font-size="17" textLength="70">instance</text><path d="M231.5 478.539h261" style="stroke:#000d19;stroke-width:.5"/><text x="241.5" y="500.534" fill="#D9B8FF" font-family="sans-serif" font-size="14" font-weight="bold" textLength="119">instance_cores</text><text x="360.5" y="500.534" fill="#D9B8FF" font-family="sans-serif" font-size="14" textLength="57">: double</text><text x="241.5" y="526.831" fill="#D9B8FF" font-family="sans-serif" font-size="14" font-weight="bold" textLength="138">instance_memory</text><text x="379.5" y="526.831" fill="#D9B8FF" font-family="sans-serif" font-size="14" textLength="57">: double</text><text x="241.5" y="553.128" fill="#D9B8FF" font-family="sans-serif" font-size="14" font-weight="bold" textLength="123">instance_status</text><text x="364.5" y="553.128" fill="#D9B8FF" font-family="sans-serif" font-size="14" textLength="118">: instance_status</text><text x="241.5" y="579.425" fill="#D9B8FF" font-family="sans-serif" font-size="14" font-weight="bold" textLength="109">instance_type</text><text x="350.5" y="579.425" fill="#D9B8FF" font-family="sans-serif" font-size="14" textLength="48">: string</text><rect width="227" height="310.758" x="248.5" y="7" fill="#3D176E" rx="2.5" ry="2.5" style="stroke:#000d19;stroke-width:.5"/><circle cx="317.25" cy="26.895" r="11" fill="#ADD1B2" style="stroke:#181818;stroke-width:1"/><path d="M320.219 32.535q-.578.297-1.219.438-.64.156-1.344.156-2.5 0-3.828-1.64-1.312-1.657-1.312-4.782t1.312-4.781q1.328-1.656 3.828-1.656.703 0 1.344.156.656.156 1.219.453v2.719q-.625-.578-1.219-.844-.594-.281-1.219-.281-1.344 0-2.031 1.078-.687 1.062-.687 3.156t.687 3.172q.688 1.062 2.031 1.062.625 0 1.219-.265.594-.281 1.219-.86z"/><text x="342.75" y="32.78" fill="#D9B8FF" font-family="Helvetica" font-size="17" textLength="71">resource</text><path d="M249.5 46.789h225" style="stroke:#000d19;stroke-width:.5"/><text x="259.5" y="68.784" fill="#D9B8FF" font-family="sans-serif" font-size="14" font-weight="bold" textLength="29">age</text><text x="288.5" y="68.784" fill="#D9B8FF" font-family="sans-serif" font-size="14" textLength="66">: duration</text><text x="259.5" y="95.081" fill="#D9B8FF" font-family="sans-serif" font-size="14" font-weight="bold" textLength="43">atime</text><text x="302.5" y="95.081" fill="#D9B8FF" font-family="sans-serif" font-size="14" textLength="70">: datetime</text><text x="259.5" y="121.378" fill="#D9B8FF" font-family="sans-serif" font-size="14" font-weight="bold" textLength="43">ctime</text><text x="302.5" y="121.378" fill="#D9B8FF" font-family="sans-serif" font-size="14" textLength="70">: datetime</text><text x="259.5" y="147.675" fill="#D9B8FF" font-family="sans-serif" font-size="14" font-weight="bold" textLength="14">id</text><text x="273.5" y="147.675" fill="#D9B8FF" font-family="sans-serif" font-size="14" textLength="48">: string</text><text x="259.5" y="173.972" fill="#D9B8FF" font-family="sans-serif" font-size="14" font-weight="bold" textLength="33">kind</text><text x="292.5" y="173.972" fill="#D9B8FF" font-family="sans-serif" font-size="14" textLength="48">: string</text><text x="259.5" y="200.269" fill="#D9B8FF" font-family="sans-serif" font-size="14" font-weight="bold" textLength="90">last_access</text><text x="349.5" y="200.269" fill="#D9B8FF" font-family="sans-serif" font-size="14" textLength="66">: duration</text><text x="259.5" y="226.565" fill="#D9B8FF" font-family="sans-serif" font-size="14" font-weight="bold" textLength="90">last_update</text><text x="349.5" y="226.565" fill="#D9B8FF" font-family="sans-serif" font-size="14" textLength="66">: duration</text><text x="259.5" y="252.862" fill="#D9B8FF" font-family="sans-serif" font-size="14" font-weight="bold" textLength="48">mtime</text><text x="307.5" y="252.862" fill="#D9B8FF" font-family="sans-serif" font-size="14" textLength="70">: datetime</text><text x="259.5" y="279.159" fill="#D9B8FF" font-family="sans-serif" font-size="14" font-weight="bold" textLength="43">name</text><text x="302.5" y="279.159" fill="#D9B8FF" font-family="sans-serif" font-size="14" textLength="48">: string</text><text x="259.5" y="305.456" fill="#D9B8FF" font-family="sans-serif" font-size="14" font-weight="bold" textLength="34">tags</text><text x="293.5" y="305.456" fill="#D9B8FF" font-family="sans-serif" font-size="14" textLength="171">: dictionary[string, string]</text><rect width="187" height="39.789" x="42.5" y="712.73" fill="#3D176E" rx="2.5" ry="2.5" style="stroke:#000d19;stroke-width:.5"/><circle cx="57.5" cy="732.625" r="11" fill="#ADD1B2" style="stroke:#181818;stroke-width:1"/><path d="M60.469 738.265q-.578.297-1.219.438-.64.156-1.344.156-2.5 0-3.828-1.64-1.312-1.657-1.312-4.782t1.312-4.781Q55.406 726 57.906 726q.703 0 1.344.156.656.156 1.219.453v2.719q-.625-.578-1.219-.844-.594-.281-1.219-.281-1.343 0-2.031 1.078-.687 1.062-.687 3.156t.687 3.172q.688 1.062 2.031 1.062.625 0 1.219-.265.594-.281 1.219-.86z"/><text x="76.5" y="738.51" fill="#D9B8FF" font-family="Helvetica" font-size="17" textLength="145">vsphere_instance</text><rect width="188" height="39.789" x="7" y="495.35" fill="#3D176E" rx="2.5" ry="2.5" style="stroke:#000d19;stroke-width:.5"/><circle cx="22" cy="515.245" r="11" fill="#ADD1B2" style="stroke:#181818;stroke-width:1"/><path d="M24.969 520.885q-.578.297-1.219.438-.64.156-1.344.156-2.5 0-3.828-1.64-1.312-1.657-1.312-4.782t1.312-4.781q1.328-1.656 3.828-1.656.703 0 1.344.156.656.156 1.219.453v2.719q-.625-.578-1.219-.844-.594-.281-1.219-.281-1.343 0-2.031 1.078-.687 1.062-.687 3.156t.687 3.172q.688 1.062 2.031 1.062.625 0 1.219-.265.594-.281 1.219-.86z"/><text x="41" y="521.13" fill="#D9B8FF" font-family="Helvetica" font-size="17" textLength="146">vsphere_resource</text><path fill="none" d="M362 336.04v102.27m0-120.27-6 18h12zm-92.711 286.557c-44.99 42.87-84.679 80.703-112.939 107.633m125.97-120.05-17.17 8.073 8.278 8.688z" style="stroke:#ffaf37;stroke-width:2"/><g fill="none"><path d="M106.995 553.127c6.62 40.77 19.195 118.113 25.855 159.113" style="stroke:#ffaf37;stroke-width:2"/><path d="m104.11 535.36-3.037 18.729 11.844-1.923z" style="stroke:#ffaf37;stroke-width:2"/></g></svg>
